images/50455540.svg

<?xml version="1.0" encoding="UTF-8"?>
<svg xmlns="http://www.w3.org/2000/svg" xmlns:xlink="http://www.w3.org/1999/xlink" width="300pt" height="300pt" viewBox="0 0 300 300" version="1.1">
<defs>
<g>
<symbol overflow="visible" id="glyph0-0">
<path style="stroke:none;" d="M 0.453125 1.59375 L 0.453125 -6.34375 L 4.953125 -6.34375 L 4.953125 1.59375 Z M 0.953125 1.09375 L 4.453125 1.09375 L 4.453125 -5.84375 L 0.953125 -5.84375 Z M 0.953125 1.09375 "/>
</symbol>
<symbol overflow="visible" id="glyph0-1">
<path style="stroke:none;" d="M 0.890625 -6.5625 L 1.765625 -6.5625 L 1.765625 0 L 0.890625 0 Z M 0.890625 -6.5625 "/>
</symbol>
<symbol overflow="visible" id="glyph0-2">
<path style="stroke:none;" d="M 3.546875 -5.953125 C 2.898438 -5.953125 2.382812 -5.710938 2 -5.234375 C 1.625 -4.753906 1.4375 -4.101562 1.4375 -3.28125 C 1.4375 -2.445312 1.625 -1.789062 2 -1.3125 C 2.382812 -0.832031 2.898438 -0.59375 3.546875 -0.59375 C 4.191406 -0.59375 4.703125 -0.832031 5.078125 -1.3125 C 5.453125 -1.789062 5.640625 -2.445312 5.640625 -3.28125 C 5.640625 -4.101562 5.453125 -4.753906 5.078125 -5.234375 C 4.703125 -5.710938 4.191406 -5.953125 3.546875 -5.953125 Z M 3.546875 -6.6875 C 4.460938 -6.6875 5.195312 -6.375 5.75 -5.75 C 6.300781 -5.132812 6.578125 -4.3125 6.578125 -3.28125 C 6.578125 -2.238281 6.300781 -1.410156 5.75 -0.796875 C 5.195312 -0.179688 4.460938 0.125 3.546875 0.125 C 2.617188 0.125 1.878906 -0.179688 1.328125 -0.796875 C 0.773438 -1.410156 0.5 -2.238281 0.5 -3.28125 C 0.5 -4.3125 0.773438 -5.132812 1.328125 -5.75 C 1.878906 -6.375 2.617188 -6.6875 3.546875 -6.6875 Z M 3.546875 -6.6875 "/>
</symbol>
<symbol overflow="visible" id="glyph0-3">
<path style="stroke:none;" d="M 0.890625 -6.5625 L 2.078125 -6.5625 L 4.984375 -1.078125 L 4.984375 -6.5625 L 5.84375 -6.5625 L 5.84375 0 L 4.65625 0 L 1.75 -5.484375 L 1.75 0 L 0.890625 0 Z M 0.890625 -6.5625 "/>
</symbol>
<symbol overflow="visible" id="glyph0-4">
<path style="stroke:none;" d="M 0.890625 -6.5625 L 1.765625 -6.5625 L 1.765625 -3.875 L 5 -3.875 L 5 -6.5625 L 5.890625 -6.5625 L 5.890625 0 L 5 0 L 5 -3.125 L 1.765625 -3.125 L 1.765625 0 L 0.890625 0 Z M 0.890625 -6.5625 "/>
</symbol>
</g>
</defs>
<g id="surface12821">
<rect x="0" y="0" width="300" height="300" style="fill:rgb(100%,100%,100%);fill-opacity:1;stroke:none;"/>
<path style="fill:none;stroke-width:1.2;stroke-linecap:butt;stroke-linejoin:miter;stroke:rgb(0%,0%,0%);stroke-opacity:1;stroke-miterlimit:10;" d="M 253.910156 198.972656 L 249.105469 178.132812 "/>
<path style=" stroke:none;fill-rule:nonzero;fill:rgb(100%,100%,100%);fill-opacity:1;" d="M 252.910156 193.472656 L 255.910156 193.472656 L 255.910156 204.472656 L 252.910156 204.472656 Z M 252.910156 193.472656 "/>
<g style="fill:rgb(0%,0%,0%);fill-opacity:1;">
  <use xlink:href="#glyph0-1" x="252.910156" y="202.135742"/>
</g>
<path style="fill:none;stroke-width:1.2;stroke-linecap:butt;stroke-linejoin:miter;stroke:rgb(0%,0%,0%);stroke-opacity:1;stroke-miterlimit:10;" d="M 249.105469 178.132812 L 228.652344 171.875 "/>
<path style="fill:none;stroke-width:1.2;stroke-linecap:butt;stroke-linejoin:miter;stroke:rgb(0%,0%,0%);stroke-opacity:1;stroke-miterlimit:10;" d="M 248.53125 172.695312 L 232.171875 167.6875 "/>
<path style="fill:none;stroke-width:1.2;stroke-linecap:butt;stroke-linejoin:miter;stroke:rgb(0%,0%,0%);stroke-opacity:1;stroke-miterlimit:10;" d="M 264.75 163.550781 L 249.105469 178.132812 "/>
<path style="fill:none;stroke-width:1.2;stroke-linecap:butt;stroke-linejoin:miter;stroke:rgb(0%,0%,0%);stroke-opacity:1;stroke-miterlimit:10;" d="M 228.652344 171.875 L 223.847656 151.035156 "/>
<path style="fill:none;stroke-width:1.2;stroke-linecap:butt;stroke-linejoin:miter;stroke:rgb(0%,0%,0%);stroke-opacity:1;stroke-miterlimit:10;" d="M 223.847656 151.035156 L 239.492188 136.449219 "/>
<path style="fill:none;stroke-width:1.2;stroke-linecap:butt;stroke-linejoin:miter;stroke:rgb(0%,0%,0%);stroke-opacity:1;stroke-miterlimit:10;" d="M 221.980469 145.894531 L 234.496094 134.226562 "/>
<path style="fill:none;stroke-width:1.2;stroke-linecap:butt;stroke-linejoin:miter;stroke:rgb(0%,0%,0%);stroke-opacity:1;stroke-miterlimit:10;" d="M 223.847656 151.035156 L 203.394531 144.777344 "/>
<path style="fill:none;stroke-width:1.2;stroke-linecap:butt;stroke-linejoin:miter;stroke:rgb(0%,0%,0%);stroke-opacity:1;stroke-miterlimit:10;" d="M 239.492188 136.449219 L 259.945312 142.707031 "/>
<path style="fill:none;stroke-width:1.2;stroke-linecap:butt;stroke-linejoin:miter;stroke:rgb(0%,0%,0%);stroke-opacity:1;stroke-miterlimit:10;" d="M 239.492188 136.449219 L 234.6875 115.609375 "/>
<path style="fill:none;stroke-width:1.2;stroke-linecap:butt;stroke-linejoin:miter;stroke:rgb(0%,0%,0%);stroke-opacity:1;stroke-miterlimit:10;" d="M 259.945312 142.707031 L 264.75 163.550781 "/>
<path style="fill:none;stroke-width:1.2;stroke-linecap:butt;stroke-linejoin:miter;stroke:rgb(0%,0%,0%);stroke-opacity:1;stroke-miterlimit:10;" d="M 255.519531 145.921875 L 259.367188 162.597656 "/>
<path style="fill:none;stroke-width:1.2;stroke-linecap:butt;stroke-linejoin:miter;stroke:rgb(0%,0%,0%);stroke-opacity:1;stroke-miterlimit:10;" d="M 236.402344 117.453125 L 244.222656 110.160156 "/>
<path style="fill:none;stroke-width:1.2;stroke-linecap:butt;stroke-linejoin:miter;stroke:rgb(100%,0%,0%);stroke-opacity:1;stroke-miterlimit:10;" d="M 244.222656 110.160156 L 252.046875 102.867188 "/>
<path style="fill:none;stroke-width:1.2;stroke-linecap:butt;stroke-linejoin:miter;stroke:rgb(0%,0%,0%);stroke-opacity:1;stroke-miterlimit:10;" d="M 232.96875 113.769531 L 240.792969 106.480469 "/>
<path style="fill:none;stroke-width:1.2;stroke-linecap:butt;stroke-linejoin:miter;stroke:rgb(100%,0%,0%);stroke-opacity:1;stroke-miterlimit:10;" d="M 240.792969 106.480469 L 248.617188 99.1875 "/>
<path style="fill:none;stroke-width:1.2;stroke-linecap:butt;stroke-linejoin:miter;stroke:rgb(0%,0%,0%);stroke-opacity:1;stroke-miterlimit:10;" d="M 234.6875 115.609375 L 224.460938 112.480469 "/>
<path style="fill:none;stroke-width:1.2;stroke-linecap:butt;stroke-linejoin:miter;stroke:rgb(0%,0%,100%);stroke-opacity:1;stroke-miterlimit:10;" d="M 224.460938 112.480469 L 214.234375 109.351562 "/>
<path style=" stroke:none;fill-rule:nonzero;fill:rgb(100%,100%,100%);fill-opacity:1;" d="M 246.332031 95.527344 L 254.332031 95.527344 L 254.332031 106.527344 L 246.332031 106.527344 Z M 246.332031 95.527344 "/>
<g style="fill:rgb(100%,0%,0%);fill-opacity:1;">
  <use xlink:href="#glyph0-2" x="246.332031" y="104.19043"/>
</g>
<path style="fill:none;stroke-width:1.2;stroke-linecap:butt;stroke-linejoin:miter;stroke:rgb(0%,0%,100%);stroke-opacity:1;stroke-miterlimit:10;" d="M 214.234375 109.351562 L 206.414062 116.644531 "/>
<path style="fill:none;stroke-width:1.2;stroke-linecap:butt;stroke-linejoin:miter;stroke:rgb(0%,0%,0%);stroke-opacity:1;stroke-miterlimit:10;" d="M 206.414062 116.644531 L 198.589844 123.933594 "/>
<path style=" stroke:none;fill-rule:nonzero;fill:rgb(100%,100%,100%);fill-opacity:1;" d="M 207.234375 103.851562 L 221.234375 103.851562 L 221.234375 114.851562 L 207.234375 114.851562 Z M 207.234375 103.851562 "/>
<g style="fill:rgb(0%,0%,100%);fill-opacity:1;">
  <use xlink:href="#glyph0-3" x="207.234375" y="112.514648"/>
  <use xlink:href="#glyph0-4" x="214.211914" y="112.514648"/>
</g>
<path style="fill:none;stroke-width:1.2;stroke-linecap:butt;stroke-linejoin:miter;stroke:rgb(0%,0%,0%);stroke-opacity:1;stroke-miterlimit:10;" d="M 199.328125 121.53125 L 189.101562 118.402344 "/>
<path style="fill:none;stroke-width:1.2;stroke-linecap:butt;stroke-linejoin:miter;stroke:rgb(100%,0%,0%);stroke-opacity:1;stroke-miterlimit:10;" d="M 189.101562 118.402344 L 178.875 115.273438 "/>
<path style="fill:none;stroke-width:1.2;stroke-linecap:butt;stroke-linejoin:miter;stroke:rgb(0%,0%,0%);stroke-opacity:1;stroke-miterlimit:10;" d="M 197.855469 126.339844 L 187.628906 123.210938 "/>
<path style="fill:none;stroke-width:1.2;stroke-linecap:butt;stroke-linejoin:miter;stroke:rgb(100%,0%,0%);stroke-opacity:1;stroke-miterlimit:10;" d="M 187.628906 123.210938 L 177.402344 120.082031 "/>
<path style="fill:none;stroke-width:1.2;stroke-linecap:butt;stroke-linejoin:miter;stroke:rgb(0%,0%,0%);stroke-opacity:1;stroke-miterlimit:10;" d="M 198.589844 123.933594 L 203.394531 144.777344 "/>
<path style=" stroke:none;fill-rule:nonzero;fill:rgb(100%,100%,100%);fill-opacity:1;" d="M 170.140625 112.179688 L 178.140625 112.179688 L 178.140625 123.179688 L 170.140625 123.179688 Z M 170.140625 112.179688 "/>
<g style="fill:rgb(100%,0%,0%);fill-opacity:1;">
  <use xlink:href="#glyph0-2" x="170.140625" y="120.842773"/>
</g>
<path style="fill:none;stroke-width:1.2;stroke-linecap:butt;stroke-linejoin:miter;stroke:rgb(0%,0%,0%);stroke-opacity:1;stroke-miterlimit:10;" d="M 203.394531 144.777344 L 187.75 159.359375 "/>
<path style="fill:none;stroke-width:1.2;stroke-linecap:butt;stroke-linejoin:miter;stroke:rgb(0%,0%,0%);stroke-opacity:1;stroke-miterlimit:10;" d="M 198.402344 142.554688 L 185.882812 154.21875 "/>
<path style="fill:none;stroke-width:1.2;stroke-linecap:butt;stroke-linejoin:miter;stroke:rgb(0%,0%,0%);stroke-opacity:1;stroke-miterlimit:10;" d="M 187.75 159.359375 L 177.527344 156.230469 "/>
<path style="fill:none;stroke-width:1.2;stroke-linecap:butt;stroke-linejoin:miter;stroke:rgb(0%,0%,100%);stroke-opacity:1;stroke-miterlimit:10;" d="M 177.527344 156.230469 L 167.300781 153.101562 "/>
<path style="fill:none;stroke-width:1.2;stroke-linecap:butt;stroke-linejoin:miter;stroke:rgb(0%,0%,100%);stroke-opacity:1;stroke-miterlimit:10;" d="M 167.300781 153.101562 L 159.476562 160.390625 "/>
<path style="fill:none;stroke-width:1.2;stroke-linecap:butt;stroke-linejoin:miter;stroke:rgb(0%,0%,0%);stroke-opacity:1;stroke-miterlimit:10;" d="M 159.476562 160.390625 L 151.65625 167.683594 "/>
<path style=" stroke:none;fill-rule:nonzero;fill:rgb(100%,100%,100%);fill-opacity:1;" d="M 160.300781 147.601562 L 174.300781 147.601562 L 174.300781 158.601562 L 160.300781 158.601562 Z M 160.300781 147.601562 "/>
<g style="fill:rgb(0%,0%,100%);fill-opacity:1;">
  <use xlink:href="#glyph0-3" x="160.300781" y="156.264648"/>
  <use xlink:href="#glyph0-4" x="167.27832" y="156.264648"/>
</g>
<path style="fill:none;stroke-width:1.2;stroke-linecap:butt;stroke-linejoin:miter;stroke:rgb(0%,0%,0%);stroke-opacity:1;stroke-miterlimit:10;" d="M 151.65625 167.683594 L 131.203125 161.425781 "/>
<path style="fill:none;stroke-width:1.2;stroke-linecap:butt;stroke-linejoin:miter;stroke:rgb(0%,0%,0%);stroke-opacity:1;stroke-miterlimit:10;" d="M 131.203125 161.425781 L 128.800781 151.003906 "/>
<path style="fill:none;stroke-width:1.2;stroke-linecap:butt;stroke-linejoin:miter;stroke:rgb(0%,0%,100%);stroke-opacity:1;stroke-miterlimit:10;" d="M 128.800781 151.003906 L 126.398438 140.585938 "/>
<path style="fill:none;stroke-width:1.2;stroke-linecap:butt;stroke-linejoin:miter;stroke:rgb(0%,0%,0%);stroke-opacity:1;stroke-miterlimit:10;" d="M 125.820312 160.472656 L 123.898438 152.136719 "/>
<path style="fill:none;stroke-width:1.2;stroke-linecap:butt;stroke-linejoin:miter;stroke:rgb(0%,0%,100%);stroke-opacity:1;stroke-miterlimit:10;" d="M 123.898438 152.136719 L 121.976562 143.800781 "/>
<path style="fill:none;stroke-width:1.2;stroke-linecap:butt;stroke-linejoin:miter;stroke:rgb(0%,0%,0%);stroke-opacity:1;stroke-miterlimit:10;" d="M 115.558594 176.007812 L 131.203125 161.425781 "/>
<path style="fill:none;stroke-width:1.2;stroke-linecap:butt;stroke-linejoin:miter;stroke:rgb(0%,0%,100%);stroke-opacity:1;stroke-miterlimit:10;" d="M 126.398438 140.585938 L 116.171875 137.457031 "/>
<path style="fill:none;stroke-width:1.2;stroke-linecap:butt;stroke-linejoin:miter;stroke:rgb(0%,0%,0%);stroke-opacity:1;stroke-miterlimit:10;" d="M 116.171875 137.457031 L 105.945312 134.328125 "/>
<path style=" stroke:none;fill-rule:nonzero;fill:rgb(100%,100%,100%);fill-opacity:1;" d="M 123.398438 135.085938 L 130.398438 135.085938 L 130.398438 146.085938 L 123.398438 146.085938 Z M 123.398438 135.085938 "/>
<g style="fill:rgb(0%,0%,100%);fill-opacity:1;">
  <use xlink:href="#glyph0-3" x="123.398438" y="143.749023"/>
</g>
<path style="fill:none;stroke-width:1.2;stroke-linecap:butt;stroke-linejoin:miter;stroke:rgb(0%,0%,0%);stroke-opacity:1;stroke-miterlimit:10;" d="M 105.945312 134.328125 L 90.300781 148.910156 "/>
<path style="fill:none;stroke-width:1.2;stroke-linecap:butt;stroke-linejoin:miter;stroke:rgb(0%,0%,0%);stroke-opacity:1;stroke-miterlimit:10;" d="M 107.8125 139.464844 L 95.296875 151.132812 "/>
<path style="fill:none;stroke-width:1.2;stroke-linecap:butt;stroke-linejoin:miter;stroke:rgb(0%,0%,0%);stroke-opacity:1;stroke-miterlimit:10;" d="M 90.300781 148.910156 L 69.851562 142.652344 "/>
<path style="fill:none;stroke-width:1.2;stroke-linecap:butt;stroke-linejoin:miter;stroke:rgb(0%,0%,0%);stroke-opacity:1;stroke-miterlimit:10;" d="M 90.300781 148.910156 L 95.109375 169.75 "/>
<path style="fill:none;stroke-width:1.2;stroke-linecap:butt;stroke-linejoin:miter;stroke:rgb(0%,0%,0%);stroke-opacity:1;stroke-miterlimit:10;" d="M 69.851562 142.652344 L 52.765625 155.519531 "/>
<path style="fill:none;stroke-width:1.2;stroke-linecap:butt;stroke-linejoin:miter;stroke:rgb(0%,0%,0%);stroke-opacity:1;stroke-miterlimit:10;" d="M 62.890625 122.429688 L 69.851562 142.652344 "/>
<path style="fill:none;stroke-width:1.2;stroke-linecap:butt;stroke-linejoin:miter;stroke:rgb(0%,0%,0%);stroke-opacity:1;stroke-miterlimit:10;" d="M 58.828125 126.085938 L 64.394531 142.265625 "/>
<path style="fill:none;stroke-width:1.2;stroke-linecap:butt;stroke-linejoin:miter;stroke:rgb(0%,0%,0%);stroke-opacity:1;stroke-miterlimit:10;" d="M 52.765625 155.519531 L 35.25 143.246094 "/>
<path style="fill:none;stroke-width:1.2;stroke-linecap:butt;stroke-linejoin:miter;stroke:rgb(0%,0%,0%);stroke-opacity:1;stroke-miterlimit:10;" d="M 53.902344 150.171875 L 39.890625 140.351562 "/>
<path style="fill:none;stroke-width:1.2;stroke-linecap:butt;stroke-linejoin:miter;stroke:rgb(0%,0%,0%);stroke-opacity:1;stroke-miterlimit:10;" d="M 35.25 143.246094 L 38.378906 133.023438 "/>
<path style="fill:none;stroke-width:1.2;stroke-linecap:butt;stroke-linejoin:miter;stroke:rgb(100%,0%,0%);stroke-opacity:1;stroke-miterlimit:10;" d="M 38.378906 133.023438 L 41.507812 122.796875 "/>
<path style="fill:none;stroke-width:1.2;stroke-linecap:butt;stroke-linejoin:miter;stroke:rgb(100%,0%,0%);stroke-opacity:1;stroke-miterlimit:10;" d="M 41.507812 122.796875 L 52.199219 122.613281 "/>
<path style="fill:none;stroke-width:1.2;stroke-linecap:butt;stroke-linejoin:miter;stroke:rgb(0%,0%,0%);stroke-opacity:1;stroke-miterlimit:10;" d="M 52.199219 122.613281 L 62.890625 122.429688 "/>
<path style=" stroke:none;fill-rule:nonzero;fill:rgb(100%,100%,100%);fill-opacity:1;" d="M 37.507812 117.296875 L 45.507812 117.296875 L 45.507812 128.296875 L 37.507812 128.296875 Z M 37.507812 117.296875 "/>
<g style="fill:rgb(100%,0%,0%);fill-opacity:1;">
  <use xlink:href="#glyph0-2" x="37.507812" y="125.959961"/>
</g>
<path style="fill:none;stroke-width:1.2;stroke-linecap:butt;stroke-linejoin:miter;stroke:rgb(0%,0%,0%);stroke-opacity:1;stroke-miterlimit:10;" d="M 95.109375 169.75 L 87.285156 177.039062 "/>
<path style="fill:none;stroke-width:1.2;stroke-linecap:butt;stroke-linejoin:miter;stroke:rgb(100%,0%,0%);stroke-opacity:1;stroke-miterlimit:10;" d="M 87.285156 177.039062 L 79.460938 184.332031 "/>
<path style="fill:none;stroke-width:1.2;stroke-linecap:butt;stroke-linejoin:miter;stroke:rgb(0%,0%,0%);stroke-opacity:1;stroke-miterlimit:10;" d="M 95.109375 169.75 L 115.558594 176.007812 "/>
<path style="fill:none;stroke-width:1.2;stroke-linecap:butt;stroke-linejoin:miter;stroke:rgb(0%,0%,0%);stroke-opacity:1;stroke-miterlimit:10;" d="M 98.625 165.5625 L 114.984375 170.570312 "/>
<path style=" stroke:none;fill-rule:nonzero;fill:rgb(100%,100%,100%);fill-opacity:1;" d="M 64.460938 178.832031 L 79.460938 178.832031 L 79.460938 189.832031 L 64.460938 189.832031 Z M 64.460938 178.832031 "/>
<g style="fill:rgb(100%,0%,0%);fill-opacity:1;">
  <use xlink:href="#glyph0-4" x="64.460938" y="187.495117"/>
  <use xlink:href="#glyph0-2" x="71.475586" y="187.495117"/>
</g>
</g>
</svg>

<svg xmlns="http://www.w3.org/2000/svg" xmlns:xlink="http://www.w3.org/1999/xlink" width="300pt" height="300pt" viewBox="0 0 300 300"><defs><symbol overflow="visible"><path d="M.453 1.594v-7.938h4.5v7.938zm.5-.5h3.5v-6.938h-3.5zm0 0"/></symbol><symbol overflow="visible" id="a"><path d="M.89-6.563h.876V0H.89zm0 0"/></symbol><symbol overflow="visible" id="b"><path d="M3.547-5.953c-.65 0-1.164.242-1.547.72-.375.48-.563 1.13-.563 1.952 0 .835.188 1.49.563 1.967.383.48.898.72 1.547.72.644 0 1.156-.24 1.53-.72.376-.476.564-1.132.564-1.968 0-.822-.187-1.474-.562-1.954-.375-.477-.887-.72-1.53-.72zm0-.734c.914 0 1.648.312 2.203.937.55.617.828 1.438.828 2.47 0 1.042-.277 1.87-.828 2.483-.555.617-1.29.922-2.203.922-.93 0-1.668-.305-2.22-.922C.774-1.41.5-2.237.5-3.28c0-1.033.273-1.853.828-2.47.55-.625 1.29-.938 2.22-.938zm0 0"/></symbol><symbol overflow="visible" id="c"><path d="M.89-6.563H2.08l2.906 5.485v-5.484h.86V0H4.656L1.75-5.484V0H.89zm0 0"/></symbol><symbol overflow="visible" id="d"><path d="M.89-6.563h.876v2.688H5v-2.688h.89V0H5v-3.125H1.766V0H.89zm0 0"/></symbol></defs><g><path fill="#fff" d="M0 0h300v300H0z"/><path d="M253.91 198.973l-4.805-20.84" stroke-width="1.2" stroke="#000" stroke-miterlimit="10" fill="none"/><path d="M252.91 193.473h3v11h-3zm0 0" fill="#fff"/><use xlink:href="#a" x="252.91" y="202.136"/><path d="M249.105 178.133l-20.453-6.258M248.53 172.695l-16.358-5.007M264.75 163.55l-15.645 14.583M228.652 171.875l-4.804-20.84M223.848 151.035l15.644-14.586M221.98 145.895l12.516-11.668M223.848 151.035l-20.453-6.258M239.492 136.45l20.453 6.257M239.492 136.45l-4.804-20.84M259.945 142.707l4.805 20.844M255.52 145.922l3.847 16.676M236.402 117.453l7.82-7.293" stroke-width="1.2" stroke="#000" stroke-miterlimit="10" fill="none"/><path d="M244.223 110.16l7.824-7.293" stroke-width="1.2" stroke="#f00" stroke-miterlimit="10" fill="none"/><path d="M232.97 113.77l7.823-7.29" stroke-width="1.2" stroke="#000" stroke-miterlimit="10" fill="none"/><path d="M240.793 106.48l7.824-7.293" stroke-width="1.2" stroke="#f00" stroke-miterlimit="10" fill="none"/><path d="M234.688 115.61l-10.227-3.13" stroke-width="1.2" stroke="#000" stroke-miterlimit="10" fill="none"/><path d="M224.46 112.48l-10.226-3.128" stroke-width="1.2" stroke="#00f" stroke-miterlimit="10" fill="none"/><path d="M246.332 95.527h8v11h-8zm0 0" fill="#fff"/><use xlink:href="#b" x="246.332" y="104.19" fill="#f00"/><path d="M214.234 109.352l-7.82 7.293" stroke-width="1.2" stroke="#00f" stroke-miterlimit="10" fill="none"/><path d="M206.414 116.645l-7.824 7.29" stroke-width="1.2" stroke="#000" stroke-miterlimit="10" fill="none"/><path d="M207.234 103.852h14v11h-14zm0 0" fill="#fff"/><g fill="#00f"><use xlink:href="#c" x="207.234" y="112.515"/><use xlink:href="#d" x="214.212" y="112.515"/></g><path d="M199.328 121.53l-10.226-3.128" stroke-width="1.2" stroke="#000" stroke-miterlimit="10" fill="none"/><path d="M189.102 118.402l-10.227-3.13" stroke-width="1.2" stroke="#f00" stroke-miterlimit="10" fill="none"/><path d="M197.855 126.34l-10.226-3.13" stroke-width="1.2" stroke="#000" stroke-miterlimit="10" fill="none"/><path d="M187.63 123.21l-10.228-3.128" stroke-width="1.2" stroke="#f00" stroke-miterlimit="10" fill="none"/><path d="M198.59 123.934l4.805 20.843" stroke-width="1.2" stroke="#000" stroke-miterlimit="10" fill="none"/><path d="M170.14 112.18h8v11h-8zm0 0" fill="#fff"/><use xlink:href="#b" x="170.141" y="120.843" fill="#f00"/><path d="M203.395 144.777L187.75 159.36M198.402 142.555l-12.52 11.664M187.75 159.36l-10.223-3.13" stroke-width="1.2" stroke="#000" stroke-miterlimit="10" fill="none"/><path d="M177.527 156.23l-10.226-3.128M167.3 153.102l-7.823 7.29" stroke-width="1.2" stroke="#00f" stroke-miterlimit="10" fill="none"/><path d="M159.477 160.39l-7.82 7.294" stroke-width="1.2" stroke="#000" stroke-miterlimit="10" fill="none"/><path d="M160.3 147.602h14v11h-14zm0 0" fill="#fff"/><g fill="#00f"><use xlink:href="#c" x="160.301" y="156.265"/><use xlink:href="#d" x="167.278" y="156.265"/></g><path d="M151.656 167.684l-20.453-6.258M131.203 161.426l-2.402-10.422" stroke-width="1.2" stroke="#000" stroke-miterlimit="10" fill="none"/><path d="M128.8 151.004l-2.402-10.418" stroke-width="1.2" stroke="#00f" stroke-miterlimit="10" fill="none"/><path d="M125.82 160.473l-1.922-8.336" stroke-width="1.2" stroke="#000" stroke-miterlimit="10" fill="none"/><path d="M123.898 152.137l-1.92-8.336" stroke-width="1.2" stroke="#00f" stroke-miterlimit="10" fill="none"/><path d="M115.56 176.008l15.643-14.582" stroke-width="1.2" stroke="#000" stroke-miterlimit="10" fill="none"/><path d="M126.398 140.586l-10.226-3.13" stroke-width="1.2" stroke="#00f" stroke-miterlimit="10" fill="none"/><path d="M116.172 137.457l-10.227-3.13" stroke-width="1.2" stroke="#000" stroke-miterlimit="10" fill="none"/><path d="M123.398 135.086h7v11h-7zm0 0" fill="#fff"/><use xlink:href="#c" x="123.398" y="143.749" fill="#00f"/><path d="M105.945 134.328L90.3 148.91M107.813 139.465l-12.516 11.668M90.3 148.91l-20.448-6.258M90.3 148.91l4.81 20.84M69.852 142.652L52.766 155.52M62.89 122.43l6.962 20.222M58.828 126.086l5.567 16.18M52.766 155.52L35.25 143.246M53.902 150.172l-14.01-9.82M35.25 143.246l3.13-10.223" stroke-width="1.2" stroke="#000" stroke-miterlimit="10" fill="none"/><path d="M38.38 133.023l3.128-10.226M41.508 122.797l10.69-.184" stroke-width="1.2" stroke="#f00" stroke-miterlimit="10" fill="none"/><path d="M52.2 122.613l10.69-.183" stroke-width="1.2" stroke="#000" stroke-miterlimit="10" fill="none"/><path d="M37.508 117.297h8v11h-8zm0 0" fill="#fff"/><use xlink:href="#b" x="37.508" y="125.96" fill="#f00"/><path d="M95.11 169.75l-7.825 7.29" stroke-width="1.2" stroke="#000" stroke-miterlimit="10" fill="none"/><path d="M87.285 177.04l-7.824 7.292" stroke-width="1.2" stroke="#f00" stroke-miterlimit="10" fill="none"/><path d="M95.11 169.75l20.45 6.258M98.625 165.563l16.36 5.007" stroke-width="1.2" stroke="#000" stroke-miterlimit="10" fill="none"/><path d="M64.46 178.832h15v11h-15zm0 0" fill="#fff"/><g fill="#f00"><use xlink:href="#d" x="64.461" y="187.495"/><use xlink:href="#b" x="71.476" y="187.495"/></g></g></svg>
